X:1
T:James Edmund Jones
T:Walden
%%score { ( 1 2 ) | ( 3 4 ) }
L:1/8
Q:1/4=184
M:3/2
K:C
V:1 treble 
V:2 treble 
V:3 bass 
V:4 bass 
V:1
"^Presto" G4 | (G4 E4) F4 | (G4 c4) B4 | B8 A4 | G8 G4 | (G4 D4) E4 | F8 F4 | E8 G4 | (G4 E4) F4 | %9
 (G4 c4) B4 | (d4 c4) A4 | G8 E4 | A8 G4 | F8 E4 | F8 F4 | (E4 G4) F4 | (E4 C4) D4 | C8 | C8 C8 |] %19
V:2
 E4 | (E4 C4) B,4 | (C4 E4) G4 | G8 F4 | (F4 E4) C4 | B,8 C4 | (C4 A,4) D4 | C8 E4 | (E4 C4) B,4 | %9
 C8 D4 | E8 ^F4 | G8 C4 | (C4 F4) E4 | (D4 A,4) ^C4 | D8 D4 | C8 D4 | C8 G,4 | C8 | A,8 G,8 |] %19
V:3
 G,4 | (C4 G,4) G,4 | G,8 C4 | C8 C4 | C8 G,4 | G,8 G,4 | A,8 G,4 | G,8 G,4 | (C4 G,4) G,4 | %9
 (G,4 ^F,4) G,4 | (G,4 A,4) C4 | B,8 _B,4 | A,8 _B,4 | A,8 A,4 | A,8 G,4 | (C4 _B,4) A,4 | %16
 (G,4 E,4) F,4 | E,8 | F,8 E,8 |] %19
V:4
 C,4 | C,8 D,4 | (E,4 C,4) E,4 | (F,4 G,4) A,4 | (C4 G,4) E,4 | (D,4 F,4) E,4 | D,8 G,,4 | %7
 C,8 C,4 | C,8 D,4 | (E,4 A,,4) B,,4 | C,8 D,4 | G,8 G,4 | (F,4 F,,4) G,,4 | A,,8 A,,4 | D,8 B,,4 | %15
 (C,4 E,,4) F,,4 | G,,8 G,,4 | E,8 | F,,8 C,8 |] %19

